static/img/kroki/d42281a0eac113b5252c52769399ecaa.svg

<?xml version="1.0" encoding="us-ascii" standalone="no"?><svg xmlns="http://www.w3.org/2000/svg" xmlns:xlink="http://www.w3.org/1999/xlink" contentStyleType="text/css" height="352px" preserveAspectRatio="none" style="width:1591px;height:352px;" version="1.1" viewBox="0 0 1591 352" width="1591px" zoomAndPan="magnify"><defs/><g><!--class azure_compute_virtual_machine--><g id="elem_azure_compute_virtual_machine"><rect codeLine="23" fill="#3D176E" height="39.7891" id="azure_compute_virtual_machine" rx="2.5" ry="2.5" style="stroke:#000D19;stroke-width:0.5;" width="315" x="7" y="206.58"/><ellipse cx="22" cy="226.4745" fill="#ADD1B2" rx="11" ry="11" style="stroke:#181818;stroke-width:1.0;"/><path d="M24.9688,232.1152 Q24.3906,232.412 23.75,232.5527 Q23.1094,232.7089 22.4063,232.7089 Q19.9063,232.7089 18.5781,231.0683 Q17.2656,229.412 17.2656,226.287 Q17.2656,223.162 18.5781,221.5058 Q19.9063,219.8495 22.4063,219.8495 Q23.1094,219.8495 23.75,220.0058 Q24.4063,220.162 24.9688,220.4589 L24.9688,223.1777 Q24.3438,222.5995 23.75,222.3339 Q23.1563,222.0527 22.5313,222.0527 Q21.1875,222.0527 20.5,223.1308 Q19.8125,224.1933 19.8125,226.287 Q19.8125,228.3808 20.5,229.4589 Q21.1875,230.5214 22.5313,230.5214 Q23.1563,230.5214 23.75,230.2558 Q24.3438,229.9745 24.9688,229.3964 L24.9688,232.1152 Z " fill="#000000"/><text fill="#D9B8FF" font-family="Helvetica" font-size="17" lengthAdjust="spacing" textLength="273" x="41" y="232.3598">azure_compute_virtual_machine</text></g><!--class azure_compute_virtual_machine_base--><g id="elem_azure_compute_virtual_machine_base"><rect codeLine="26" fill="#3D176E" height="39.7891" id="azure_compute_virtual_machine_base" rx="2.5" ry="2.5" style="stroke:#000D19;stroke-width:0.5;" width="362" x="709.5" y="206.58"/><ellipse cx="724.5" cy="226.4745" fill="#ADD1B2" rx="11" ry="11" style="stroke:#181818;stroke-width:1.0;"/><path d="M727.4688,232.1152 Q726.8906,232.412 726.25,232.5527 Q725.6094,232.7089 724.9063,232.7089 Q722.4063,232.7089 721.0781,231.0683 Q719.7656,229.412 719.7656,226.287 Q719.7656,223.162 721.0781,221.5058 Q722.4063,219.8495 724.9063,219.8495 Q725.6094,219.8495 726.25,220.0058 Q726.9063,220.162 727.4688,220.4589 L727.4688,223.1777 Q726.8438,222.5995 726.25,222.3339 Q725.6563,222.0527 725.0313,222.0527 Q723.6875,222.0527 723,223.1308 Q722.3125,224.1933 722.3125,226.287 Q722.3125,228.3808 723,229.4589 Q723.6875,230.5214 725.0313,230.5214 Q725.6563,230.5214 726.25,230.2558 Q726.8438,229.9745 727.4688,229.3964 L727.4688,232.1152 Z " fill="#000000"/><text fill="#D9B8FF" font-family="Helvetica" font-size="17" lengthAdjust="spacing" textLength="320" x="743.5" y="232.3598">azure_compute_virtual_machine_base</text></g><!--class azure_compute_virtual_machine_scale_set_instance--><g id="elem_azure_compute_virtual_machine_scale_set_instance"><rect codeLine="29" fill="#3D176E" height="39.7891" id="azure_compute_virtual_machine_scale_set_instance" rx="2.5" ry="2.5" style="stroke:#000D19;stroke-width:0.5;" width="478" x="1106.5" y="206.58"/><ellipse cx="1121.5" cy="226.4745" fill="#ADD1B2" rx="11" ry="11" style="stroke:#181818;stroke-width:1.0;"/><path d="M1124.4688,232.1152 Q1123.8906,232.412 1123.25,232.5527 Q1122.6094,232.7089 1121.9063,232.7089 Q1119.4063,232.7089 1118.0781,231.0683 Q1116.7656,229.412 1116.7656,226.287 Q1116.7656,223.162 1118.0781,221.5058 Q1119.4063,219.8495 1121.9063,219.8495 Q1122.6094,219.8495 1123.25,220.0058 Q1123.9063,220.162 1124.4688,220.4589 L1124.4688,223.1777 Q1123.8438,222.5995 1123.25,222.3339 Q1122.6563,222.0527 1122.0313,222.0527 Q1120.6875,222.0527 1120,223.1308 Q1119.3125,224.1933 1119.3125,226.287 Q1119.3125,228.3808 1120,229.4589 Q1120.6875,230.5214 1122.0313,230.5214 Q1122.6563,230.5214 1123.25,230.2558 Q1123.8438,229.9745 1124.4688,229.3964 L1124.4688,232.1152 Z " fill="#000000"/><text fill="#D9B8FF" font-family="Helvetica" font-size="17" lengthAdjust="spacing" textLength="436" x="1140.5" y="232.3598">azure_compute_virtual_machine_scale_set_instance</text></g><!--class azure_network_flow_log--><g id="elem_azure_network_flow_log"><rect codeLine="32" fill="#3D176E" height="39.7891" id="azure_network_flow_log" rx="2.5" ry="2.5" style="stroke:#000D19;stroke-width:0.5;" width="246" x="428.5" y="206.58"/><ellipse cx="443.5" cy="226.4745" fill="#ADD1B2" rx="11" ry="11" style="stroke:#181818;stroke-width:1.0;"/><path d="M446.4688,232.1152 Q445.8906,232.412 445.25,232.5527 Q444.6094,232.7089 443.9063,232.7089 Q441.4063,232.7089 440.0781,231.0683 Q438.7656,229.412 438.7656,226.287 Q438.7656,223.162 440.0781,221.5058 Q441.4063,219.8495 443.9063,219.8495 Q444.6094,219.8495 445.25,220.0058 Q445.9063,220.162 446.4688,220.4589 L446.4688,223.1777 Q445.8438,222.5995 445.25,222.3339 Q444.6563,222.0527 444.0313,222.0527 Q442.6875,222.0527 442,223.1308 Q441.3125,224.1933 441.3125,226.287 Q441.3125,228.3808 442,229.4589 Q442.6875,230.5214 444.0313,230.5214 Q444.6563,230.5214 445.25,230.2558 Q445.8438,229.9745 446.4688,229.3964 L446.4688,232.1152 Z " fill="#000000"/><text fill="#D9B8FF" font-family="Helvetica" font-size="17" lengthAdjust="spacing" textLength="204" x="462.5" y="232.3598">azure_network_flow_log</text></g><!--class azure_network_interface--><g id="elem_azure_network_interface"><rect codeLine="35" fill="#3D176E" height="39.7891" id="azure_network_interface" rx="2.5" ry="2.5" style="stroke:#000D19;stroke-width:0.5;" width="250" x="507.5" y="306.37"/><ellipse cx="522.5" cy="326.2645" fill="#ADD1B2" rx="11" ry="11" style="stroke:#181818;stroke-width:1.0;"/><path d="M525.4688,331.9052 Q524.8906,332.202 524.25,332.3427 Q523.6094,332.4989 522.9063,332.4989 Q520.4063,332.4989 519.0781,330.8583 Q517.7656,329.202 517.7656,326.077 Q517.7656,322.952 519.0781,321.2958 Q520.4063,319.6395 522.9063,319.6395 Q523.6094,319.6395 524.25,319.7958 Q524.9063,319.952 525.4688,320.2489 L525.4688,322.9677 Q524.8438,322.3895 524.25,322.1239 Q523.6563,321.8427 523.0313,321.8427 Q521.6875,321.8427 521,322.9208 Q520.3125,323.9833 520.3125,326.077 Q520.3125,328.1708 521,329.2489 Q521.6875,330.3114 523.0313,330.3114 Q523.6563,330.3114 524.25,330.0458 Q524.8438,329.7645 525.4688,329.1864 L525.4688,331.9052 Z " fill="#000000"/><text fill="#D9B8FF" font-family="Helvetica" font-size="17" lengthAdjust="spacing" textLength="208" x="541.5" y="332.1498">azure_network_interface</text></g><!--class azure_network_security_group--><g id="elem_azure_network_security_group"><rect codeLine="38" fill="#3D176E" height="39.7891" id="azure_network_security_group" rx="2.5" ry="2.5" style="stroke:#000D19;stroke-width:0.5;" width="299" x="436" y="106.79"/><ellipse cx="451" cy="126.6845" fill="#ADD1B2" rx="11" ry="11" style="stroke:#181818;stroke-width:1.0;"/><path d="M453.9688,132.3252 Q453.3906,132.622 452.75,132.7627 Q452.1094,132.9189 451.4063,132.9189 Q448.9063,132.9189 447.5781,131.2783 Q446.2656,129.622 446.2656,126.497 Q446.2656,123.372 447.5781,121.7158 Q448.9063,120.0595 451.4063,120.0595 Q452.1094,120.0595 452.75,120.2158 Q453.4063,120.372 453.9688,120.6689 L453.9688,123.3877 Q453.3438,122.8095 452.75,122.5439 Q452.1563,122.2627 451.5313,122.2627 Q450.1875,122.2627 449.5,123.3408 Q448.8125,124.4033 448.8125,126.497 Q448.8125,128.5908 449.5,129.6689 Q450.1875,130.7314 451.5313,130.7314 Q452.1563,130.7314 452.75,130.4658 Q453.3438,130.1845 453.9688,129.6064 L453.9688,132.3252 Z " fill="#000000"/><text fill="#D9B8FF" font-family="Helvetica" font-size="17" lengthAdjust="spacing" textLength="257" x="470" y="132.5698">azure_network_security_group</text></g><!--class azure_network_subnet--><g id="elem_azure_network_subnet"><rect codeLine="41" fill="#3D176E" height="39.7891" id="azure_network_subnet" rx="2.5" ry="2.5" style="stroke:#000D19;stroke-width:0.5;" width="233" x="570" y="7"/><ellipse cx="585" cy="26.8945" fill="#ADD1B2" rx="11" ry="11" style="stroke:#181818;stroke-width:1.0;"/><path d="M587.9688,32.5352 Q587.3906,32.832 586.75,32.9727 Q586.1094,33.1289 585.4063,33.1289 Q582.9063,33.1289 581.5781,31.4883 Q580.2656,29.832 580.2656,26.707 Q580.2656,23.582 581.5781,21.9258 Q582.9063,20.2695 585.4063,20.2695 Q586.1094,20.2695 586.75,20.4258 Q587.4063,20.582 587.9688,20.8789 L587.9688,23.5977 Q587.3438,23.0195 586.75,22.7539 Q586.1563,22.4727 585.5313,22.4727 Q584.1875,22.4727 583.5,23.5508 Q582.8125,24.6133 582.8125,26.707 Q582.8125,28.8008 583.5,29.8789 Q584.1875,30.9414 585.5313,30.9414 Q586.1563,30.9414 586.75,30.6758 Q587.3438,30.3945 587.9688,29.8164 L587.9688,32.5352 Z " fill="#000000"/><text fill="#D9B8FF" font-family="Helvetica" font-size="17" lengthAdjust="spacing" textLength="191" x="604" y="32.7798">azure_network_subnet</text></g><!--link azure_compute_virtual_machine to azure_network_interface--><g id="link_azure_compute_virtual_machine_azure_network_interface"><path codeLine="44" d="M257.24,246.85 C339.18,263.98 452.1869,287.5927 534.0669,304.7027 " fill="none" id="azure_compute_virtual_machine-to-azure_network_interface" style="stroke:#1A83AF;stroke-width:2.0;"/><polygon fill="#1A83AF" points="539.94,305.93,531.9485,300.1737,535.0457,304.9073,530.3121,308.0045,539.94,305.93" style="stroke:#1A83AF;stroke-width:2.0;"/></g><!--link azure_compute_virtual_machine_base to azure_network_interface--><g id="link_azure_compute_virtual_machine_base_azure_network_interface"><path codeLine="45" d="M839.53,246.8 C794.3,263.94 734.1802,286.7226 688.9802,303.8626 " fill="none" id="azure_compute_virtual_machine_base-to-azure_network_interface" style="stroke:#1A83AF;stroke-width:2.0;"/><polygon fill="#1A83AF" points="683.37,305.99,693.2035,306.539,688.0452,304.2172,690.367,299.0588,683.37,305.99" style="stroke:#1A83AF;stroke-width:2.0;"/></g><!--link azure_compute_virtual_machine_scale_set_instance to azure_network_interface--><g id="link_azure_compute_virtual_machine_scale_set_instance_azure_network_interface"><path codeLine="46" d="M1204.21,246.85 C1074.09,264.7 888.7944,290.1149 763.9444,307.2349 " fill="none" id="azure_compute_virtual_machine_scale_set_instance-to-azure_network_interface" style="stroke:#1A83AF;stroke-width:2.0;"/><polygon fill="#1A83AF" points="758,308.05,767.46,310.7902,762.9536,307.3707,766.3731,302.8644,758,308.05" style="stroke:#1A83AF;stroke-width:2.0;"/></g><!--link azure_network_security_group to azure_compute_virtual_machine--><g id="link_azure_network_security_group_azure_compute_virtual_machine"><path codeLine="47" d="M502.07,147.07 C428.36,164.19 327.2744,187.6726 253.6044,204.7826 " fill="none" id="azure_network_security_group-to-azure_compute_virtual_machine" style="stroke:#1A83AF;stroke-width:2.0;"/><polygon fill="#1A83AF" points="247.76,206.14,257.4316,208.0002,252.6304,205.0088,255.6217,200.2076,247.76,206.14" style="stroke:#1A83AF;stroke-width:2.0;"/></g><!--link azure_network_security_group to azure_compute_virtual_machine_base--><g id="link_azure_network_security_group_azure_compute_virtual_machine_base"><path codeLine="48" d="M645.76,147.01 C699.14,164.12 770.9665,187.1482 824.3965,204.2782 " fill="none" id="azure_network_security_group-to-azure_compute_virtual_machine_base" style="stroke:#1A83AF;stroke-width:2.0;"/><polygon fill="#1A83AF" points="830.11,206.11,822.7609,199.5533,825.3487,204.5835,820.3185,207.1713,830.11,206.11" style="stroke:#1A83AF;stroke-width:2.0;"/></g><!--link azure_network_security_group to azure_compute_virtual_machine_scale_set_instance--><g id="link_azure_network_security_group_azure_compute_virtual_machine_scale_set_instance"><path codeLine="49" d="M735.2,146.95 C868.17,164.06 1055.6091,188.1742 1188.8791,205.3242 " fill="none" id="azure_network_security_group-to-azure_compute_virtual_machine_scale_set_instance" style="stroke:#1A83AF;stroke-width:2.0;"/><polygon fill="#1A83AF" points="1194.83,206.09,1186.4141,200.974,1189.8709,205.4518,1185.3931,208.9086,1194.83,206.09" style="stroke:#1A83AF;stroke-width:2.0;"/></g><!--link azure_network_security_group to azure_network_flow_log--><g id="link_azure_network_security_group_azure_network_flow_log"><path codeLine="50" d="M578.78,147.01 C572.82,164.15 566.1306,183.3928 560.1706,200.5328 " fill="none" id="azure_network_security_group-to-azure_network_flow_log" style="stroke:#1A83AF;stroke-width:2.0;"/><polygon fill="#1A83AF" points="558.2,206.2,564.934,199.013,559.8422,201.4774,557.3778,196.3855,558.2,206.2" style="stroke:#1A83AF;stroke-width:2.0;"/></g><!--link azure_network_security_group to azure_network_interface--><g id="link_azure_network_security_group_azure_network_interface"><path codeLine="51" d="M509.36,147.01 C448.3,166.4 377.79,200.04 410.5,246.37 C433.14,278.45 464.2808,295.8202 501.5408,307.1802 " fill="none" id="azure_network_security_group-to-azure_network_interface" style="stroke:#1A83AF;stroke-width:2.0;"/><polygon fill="#1A83AF" points="507.28,308.93,499.8377,302.4792,502.4973,307.4718,497.5047,310.1314,507.28,308.93" style="stroke:#1A83AF;stroke-width:2.0;"/></g><!--link azure_network_subnet to azure_compute_virtual_machine--><g id="link_azure_network_subnet_azure_compute_virtual_machine"><path codeLine="52" d="M609.54,47.25 C555.41,61.65 481.67,82.89 418.5,106.79 C339.06,136.85 255.2326,178.3199 206.5226,203.4399 " fill="none" id="azure_network_subnet-to-azure_compute_virtual_machine" style="stroke:#1A83AF;stroke-width:2.0;"/><polygon fill="#1A83AF" points="201.19,206.19,211.0223,205.62,205.6339,203.8983,207.3556,198.5098,201.19,206.19" style="stroke:#1A83AF;stroke-width:2.0;"/></g><!--link azure_network_subnet to azure_compute_virtual_machine_base--><g id="link_azure_network_subnet_azure_compute_virtual_machine_base"><path codeLine="53" d="M706.43,47.2 C745.43,84.97 827.1095,164.0863 866.1795,201.9163 " fill="none" id="azure_network_subnet-to-azure_compute_virtual_machine_base" style="stroke:#1A83AF;stroke-width:2.0;"/><polygon fill="#1A83AF" points="870.49,206.09,866.8067,196.9558,866.8979,202.6119,861.2418,202.7031,870.49,206.09" style="stroke:#1A83AF;stroke-width:2.0;"/></g><!--link azure_network_subnet to azure_compute_virtual_machine_scale_set_instance--><g id="link_azure_network_subnet_azure_compute_virtual_machine_scale_set_instance"><path codeLine="54" d="M750.89,47.2 C876.87,84.97 1148.9127,166.537 1275.1027,204.367 " fill="none" id="azure_network_subnet-to-azure_compute_virtual_machine_scale_set_instance" style="stroke:#1A83AF;stroke-width:2.0;"/><polygon fill="#1A83AF" points="1280.85,206.09,1273.3777,199.674,1276.0606,204.6542,1271.0804,207.3371,1280.85,206.09" style="stroke:#1A83AF;stroke-width:2.0;"/></g><!--link azure_network_subnet to azure_network_security_group--><g id="link_azure_network_subnet_azure_network_security_group"><path codeLine="55" d="M666.55,47.22 C648.84,64.36 627.4215,85.1073 609.7215,102.2373 " fill="none" id="azure_network_subnet-to-azure_network_security_group" style="stroke:#1A83AF;stroke-width:2.0;"/><polygon fill="#1A83AF" points="605.41,106.41,614.659,103.0254,609.0029,102.9328,609.0955,97.2767,605.41,106.41" style="stroke:#1A83AF;stroke-width:2.0;"/></g><!--SRC=[hP9DQy9048Rl-HKBdWMjjEgbO0LfBr9gRwM4oUwiMKnsm-n6qTB_tjYq9SsNHho4iFFadPad6og13EF4xLcCSO1aFRjHEW62cCs8p6vk8aEi9oN8qRXSN1ZjJW9BY94zOhH5fpYKYTTGyOr6QzbDeVG0VBCcasgHnpi2RRCIQbUWvX5OEtEEL90wB0mZfi54oZ9P3ksDn71yXnNCa43wGGQ3WHXEoyZ9Lgrx_n4hTK0sB4fR6eULCIijlgdMAOz4OSZAeh_rnXcVGGYbr-osSFQIpqGQwT_vAWHXTaTQGcIBRQn3GkFs2SuhM-5q8kIu5dvgWZr-LCVWa1BwtCH9zjlzhIANGkJ7m4EbaNrutkSve1-0xK1R3b7sHEShRHreNlEjHhSpjF5bP7P-PDRDXDBPjXBQGYpob9JR-qSJIGkN1jbhNcytqt_h3MUJqMpnthzlciSxmzaLScfiTaXjK5IJqD3_MZdVFguMLfNIERfy0oyEQ5IUtxRBLNVzlbPnvv3JQXiZwzrvNm00]--></g></svg>

<svg xmlns="http://www.w3.org/2000/svg" width="1591" height="352" viewBox="0 0 1591 352"><rect width="315" height="39.789" x="7" y="206.58" fill="#3D176E" rx="2.5" ry="2.5" style="stroke:#000d19;stroke-width:.5"/><circle cx="22" cy="226.475" r="11" fill="#ADD1B2" style="stroke:#181818;stroke-width:1"/><path d="M24.969 232.115q-.578.297-1.219.438-.64.156-1.344.156-2.5 0-3.828-1.64-1.312-1.657-1.312-4.782t1.312-4.781q1.328-1.656 3.828-1.656.703 0 1.344.156.656.156 1.219.453v2.719q-.625-.578-1.219-.844-.594-.281-1.219-.281-1.343 0-2.031 1.078-.687 1.062-.687 3.156t.687 3.172q.688 1.062 2.031 1.062.625 0 1.219-.265.594-.281 1.219-.86z"/><text x="41" y="232.36" fill="#D9B8FF" font-family="Helvetica" font-size="17" textLength="273">azure_compute_virtual_machine</text><rect width="362" height="39.789" x="709.5" y="206.58" fill="#3D176E" rx="2.5" ry="2.5" style="stroke:#000d19;stroke-width:.5"/><circle cx="724.5" cy="226.475" r="11" fill="#ADD1B2" style="stroke:#181818;stroke-width:1"/><path d="M727.469 232.115q-.578.297-1.219.438-.64.156-1.344.156-2.5 0-3.828-1.64-1.312-1.657-1.312-4.782t1.312-4.781q1.328-1.656 3.828-1.656.703 0 1.344.156.656.156 1.219.453v2.719q-.625-.578-1.219-.844-.594-.281-1.219-.281-1.343 0-2.031 1.078-.687 1.062-.687 3.156t.687 3.172q.688 1.062 2.031 1.062.625 0 1.219-.265.594-.281 1.219-.86z"/><text x="743.5" y="232.36" fill="#D9B8FF" font-family="Helvetica" font-size="17" textLength="320">azure_compute_virtual_machine_base</text><rect width="478" height="39.789" x="1106.5" y="206.58" fill="#3D176E" rx="2.5" ry="2.5" style="stroke:#000d19;stroke-width:.5"/><circle cx="1121.5" cy="226.475" r="11" fill="#ADD1B2" style="stroke:#181818;stroke-width:1"/><path d="M1124.469 232.115q-.578.297-1.219.438-.64.156-1.344.156-2.5 0-3.828-1.64-1.312-1.657-1.312-4.782t1.312-4.781q1.328-1.656 3.828-1.656.703 0 1.344.156.656.156 1.219.453v2.719q-.625-.578-1.219-.844-.594-.281-1.219-.281-1.343 0-2.031 1.078-.687 1.062-.687 3.156t.687 3.172q.688 1.062 2.031 1.062.625 0 1.219-.265.594-.281 1.219-.86z"/><text x="1140.5" y="232.36" fill="#D9B8FF" font-family="Helvetica" font-size="17" textLength="436">azure_compute_virtual_machine_scale_set_instance</text><rect width="246" height="39.789" x="428.5" y="206.58" fill="#3D176E" rx="2.5" ry="2.5" style="stroke:#000d19;stroke-width:.5"/><circle cx="443.5" cy="226.475" r="11" fill="#ADD1B2" style="stroke:#181818;stroke-width:1"/><path d="M446.469 232.115q-.578.297-1.219.438-.64.156-1.344.156-2.5 0-3.828-1.64-1.312-1.657-1.312-4.782t1.312-4.781q1.328-1.656 3.828-1.656.703 0 1.344.156.656.156 1.219.453v2.719q-.625-.578-1.219-.844-.594-.281-1.219-.281-1.344 0-2.031 1.078-.687 1.062-.687 3.156t.687 3.172q.688 1.062 2.031 1.062.625 0 1.219-.265.594-.281 1.219-.86z"/><text x="462.5" y="232.36" fill="#D9B8FF" font-family="Helvetica" font-size="17" textLength="204">azure_network_flow_log</text><rect width="250" height="39.789" x="507.5" y="306.37" fill="#3D176E" rx="2.5" ry="2.5" style="stroke:#000d19;stroke-width:.5"/><circle cx="522.5" cy="326.264" r="11" fill="#ADD1B2" style="stroke:#181818;stroke-width:1"/><path d="M525.469 331.905q-.578.297-1.219.438-.64.156-1.344.156-2.5 0-3.828-1.64-1.312-1.657-1.312-4.782t1.312-4.781q1.328-1.656 3.828-1.656.703 0 1.344.156.656.156 1.219.453v2.719q-.625-.579-1.219-.844-.594-.281-1.219-.281-1.343 0-2.031 1.078-.687 1.062-.687 3.156t.687 3.172q.688 1.062 2.031 1.062.625 0 1.219-.265.594-.281 1.219-.86z"/><text x="541.5" y="332.15" fill="#D9B8FF" font-family="Helvetica" font-size="17" textLength="208">azure_network_interface</text><rect width="299" height="39.789" x="436" y="106.79" fill="#3D176E" rx="2.5" ry="2.5" style="stroke:#000d19;stroke-width:.5"/><circle cx="451" cy="126.684" r="11" fill="#ADD1B2" style="stroke:#181818;stroke-width:1"/><path d="M453.969 132.325q-.578.297-1.219.438-.64.156-1.344.156-2.5 0-3.828-1.64-1.312-1.657-1.312-4.782t1.312-4.781q1.328-1.656 3.828-1.656.703 0 1.344.156.656.156 1.219.453v2.719q-.625-.579-1.219-.844-.594-.281-1.219-.281-1.344 0-2.031 1.078-.687 1.062-.687 3.156t.687 3.172q.688 1.062 2.031 1.062.625 0 1.219-.265.594-.281 1.219-.86z"/><text x="470" y="132.57" fill="#D9B8FF" font-family="Helvetica" font-size="17" textLength="257">azure_network_security_group</text><rect width="233" height="39.789" x="570" y="7" fill="#3D176E" rx="2.5" ry="2.5" style="stroke:#000d19;stroke-width:.5"/><circle cx="585" cy="26.895" r="11" fill="#ADD1B2" style="stroke:#181818;stroke-width:1"/><path d="M587.969 32.535q-.578.297-1.219.438-.64.156-1.344.156-2.5 0-3.828-1.64-1.312-1.657-1.312-4.782t1.312-4.781q1.328-1.656 3.828-1.656.703 0 1.344.156.656.156 1.219.453v2.719q-.625-.578-1.219-.844-.594-.281-1.219-.281-1.343 0-2.031 1.078-.687 1.062-.687 3.156t.687 3.172q.688 1.062 2.031 1.062.625 0 1.219-.265.594-.281 1.219-.86z"/><text x="604" y="32.78" fill="#D9B8FF" font-family="Helvetica" font-size="17" textLength="191">azure_network_subnet</text><path fill="none" d="M257.24 246.85c81.94 17.13 194.947 40.743 276.827 57.853" style="stroke:#1a83af;stroke-width:2"/><path fill="#1A83AF" d="m539.94 305.93-7.992-5.756 3.098 4.733-4.734 3.098z" style="stroke:#1a83af;stroke-width:2"/><path fill="none" d="M839.53 246.8a812631 812631 0 0 0-150.55 57.063" style="stroke:#1a83af;stroke-width:2"/><path fill="#1A83AF" d="m683.37 305.99 9.833.549-5.158-2.322 2.322-5.158z" style="stroke:#1a83af;stroke-width:2"/><path fill="none" d="M1204.21 246.85c-130.12 17.85-315.416 43.265-440.266 60.385" style="stroke:#1a83af;stroke-width:2"/><path fill="#1A83AF" d="m758 308.05 9.46 2.74-4.506-3.42 3.42-4.506z" style="stroke:#1a83af;stroke-width:2"/><path fill="none" d="M502.07 147.07c-73.71 17.12-174.796 40.603-248.466 57.713" style="stroke:#1a83af;stroke-width:2"/><path fill="#1A83AF" d="m247.76 206.14 9.672 1.86-4.802-2.991 2.992-4.801z" style="stroke:#1a83af;stroke-width:2"/><path fill="none" d="M645.76 147.01c53.38 17.11 125.207 40.138 178.636 57.268" style="stroke:#1a83af;stroke-width:2"/><path fill="#1A83AF" d="m830.11 206.11-7.35-6.557 2.589 5.03-5.03 2.588z" style="stroke:#1a83af;stroke-width:2"/><path fill="none" d="M735.2 146.95c132.97 17.11 320.41 41.224 453.68 58.374" style="stroke:#1a83af;stroke-width:2"/><path fill="#1A83AF" d="m1194.83 206.09-8.416-5.116 3.457 4.478-4.478 3.457z" style="stroke:#1a83af;stroke-width:2"/><path fill="none" d="m578.78 147.01-18.61 53.523" style="stroke:#1a83af;stroke-width:2"/><path fill="#1A83AF" d="m558.2 206.2 6.734-7.187-5.092 2.464-2.464-5.091z" style="stroke:#1a83af;stroke-width:2"/><path fill="none" d="M509.36 147.01c-61.06 19.39-131.57 53.03-98.86 99.36 22.64 32.08 53.78 49.45 91.04 60.81" style="stroke:#1a83af;stroke-width:2"/><path fill="#1A83AF" d="m507.28 308.93-7.442-6.45 2.66 4.992-4.993 2.66z" style="stroke:#1a83af;stroke-width:2"/><path fill="none" d="M609.54 47.25c-54.13 14.4-127.87 35.64-191.04 59.54-79.44 30.06-163.267 71.53-211.977 96.65" style="stroke:#1a83af;stroke-width:2"/><path fill="#1A83AF" d="m201.19 206.19 9.832-.57-5.388-1.722 1.722-5.388z" style="stroke:#1a83af;stroke-width:2"/><path fill="none" d="M706.43 47.2c39 37.77 120.68 116.886 159.75 154.716" style="stroke:#1a83af;stroke-width:2"/><path fill="#1A83AF" d="m870.49 206.09-3.683-9.134.09 5.656-5.655.091z" style="stroke:#1a83af;stroke-width:2"/><path fill="none" d="M750.89 47.2c125.98 37.77 398.023 119.337 524.213 157.167" style="stroke:#1a83af;stroke-width:2"/><path fill="#1A83AF" d="m1280.85 206.09-7.472-6.416 2.683 4.98-4.98 2.683z" style="stroke:#1a83af;stroke-width:2"/><path fill="none" d="M666.55 47.22c-17.71 17.14-39.128 37.887-56.828 55.017" style="stroke:#1a83af;stroke-width:2"/><path fill="#1A83AF" d="m605.41 106.41 9.249-3.385-5.656-.092.092-5.656z" style="stroke:#1a83af;stroke-width:2"/></svg>
